src/images/Fb.svg

<svg width="20" height="20" viewBox="0 0 20 20" fill="none" xmlns="http://www.w3.org/2000/svg">
<path fill-rule="evenodd" clip-rule="evenodd" d="M19.2828 10.0001C19.2828 4.87304 14.9657 0.71582 9.64141 0.71582C4.31711 0.71582 0 4.87304 0 10.0001C0 14.634 3.52514 18.475 8.13494 19.1721V12.6847H5.68628V10.0001H8.13494V7.95469C8.13494 5.62822 9.5747 4.34209 11.7767 4.34209C12.8317 4.34209 13.9353 4.52364 13.9353 4.52364V6.80866H12.7189C11.5219 6.80866 11.1475 7.52405 11.1475 8.25933V10.0001H13.8212L13.3942 12.6847H11.1479V19.173C15.7577 18.4762 19.2828 14.6353 19.2828 10.0001Z" fill="#274C5B"/>
</svg>

<svg width="20" height="20" fill="none" xmlns="http://www.w3.org/2000/svg"><path fill-rule="evenodd" clip-rule="evenodd" d="M19.283 10c0-5.127-4.317-9.284-9.642-9.284C4.317.716 0 4.873 0 10c0 4.634 3.525 8.475 8.135 9.172v-6.487H5.686V10h2.449V7.955c0-2.327 1.44-3.613 3.642-3.613 1.055 0 2.158.182 2.158.182v2.285H12.72c-1.197 0-1.571.715-1.571 1.45V10h2.673l-.427 2.685h-2.246v6.488c4.61-.697 8.135-4.538 8.135-9.173Z" fill="#274C5B"/></svg>
